!!!COM: Haydn, Franz Joseph
!!!OTL: String Quartet in E-flat Major
!!!OPS: Opus 17
!!!ONM: No. 3
!!!OMD: Allegro di molto
!!!OMV: 4
!!!SCT: H III:27
!!!SCA: Thematisch-bibliographisches Werkevererzeichnis (A. van Hoboken)
!!!YOR: Trautwein Edition
!!!ENC: Frances Bennion
!!!CDT: 1732/3/31/-1809/5/31/
!!!CNT: Oesterreich
!!!YEC: Copyright (c) 1994, 2000 Center for Computer Assisted Research in the Humanities
!!!YEM: Rights to all derivative editions reserved.
!!!YEM: Refer to licensing agreement for further details.
!!!YEN: United States of America
**kern	**kern	**kern	**kern
*k[b-e-a-]	*k[b-e-a-]	*k[b-e-a-]	*k[b-e-a-]
*E-:	*E-:	*E-:	*E-:
*clefF4	*clefC3	*clefG	*clefG
*M4/4	*M4/4	*M4/4	*M4/4
2..r	2..r	2..r	2..r
8r	8r	8r	8b-
=1	=1	=1	=1
1r	1r	1r	8ee-
.	.	.	8b-
.	.	.	8.b-
.	.	.	32a
.	.	.	32b-
.	.	.	8cc
.	.	.	8cc
.	.	.	8b-
.	.	.	8b-
=2	=2	=2	=2
8A-	8B-	8d	8f
8A-	8B-	8d	8f
8G	8B-	8e-	8g
8G	8B-	8e-	8g
4F	4B-	4d	4a-
4r	4r	4r	8r
.	.	.	8b-
=3	=3	=3	=3
1r	1r	1r	8ee-
.	.	.	8b-
.	.	.	8.b-
.	.	.	32a
.	.	.	32b-
.	.	.	8cc
.	.	.	8cc
.	.	.	8b-
.	.	.	8b-
=4	=4	=4	=4
8AA-	8c	8f	8a-
8AA-	8c	8f	8a-
8BB-	8A-	8d	8f
8BB-	8A-	8d	8f
4E-	4G	4e-	4e-
4r	4r	4r	8r
.	.	.	16b-
.	.	.	16g
=5	=5	=5	=5
8EE-	8G	8e-	16e-
.	.	.	16g
8EE-	8G	8e-	16e-
.	.	.	16g
8BB-	8A-	8d	16f
.	.	.	16a-
8BB-	8A-	8d	16d
.	.	.	16f
4EE-	4G	4e-	16e-
.	.	.	16g
.	.	.	16B-
.	.	.	16e-
4r	4r	4r	8G
.	.	.	16b-
.	.	.	16g
=6	=6	=6	=6
8EE-	8G	8e-	16e-
.	.	.	16g
8EE-	8G	8e-	16e-
.	.	.	16g
8BB-	8A-	8d	16f
.	.	.	16a-
8BB-	8A-	8d	16d
.	.	.	16f
4EE-	4G	8e-	8e-
.	.	8f	8a-
4r	4r	8e-	8g
.	.	8a-	8cc
=7	=7	=7	=7
4E-	4e-	8g	8b-
.	.	8dd	8aa-
4r	4r	8ee-	8gg
.	.	8a-	8ccc
4E-	4e-	8g	8bb-
.	.	8cc	8eee-
4r	4r	8b-	8ddd
.	.	8a-	8ccc
=8	=8	=8	=8
8r	8r	4g	4bb-
8E-	8e-	.	.
8A-	8c	8f	8aa-
8A	8A	8e-	8gg
8B-	8B-	8d	8ff
8B-	8f	8a-	16ddd
.	.	.	16bb-
8B-	8e-	8g	16eee-
.	.	.	16bb-
8B-	8g	8e-	16gg
.	.	.	16ee-
=9	=9	=9	=9
8B-	4f	8d	8bb-
8B-	.	8a-	16ddd
.	.	.	16bb-
8B-	8e-	8g	16eee-
.	.	.	16bb-
8B-	8g	8e-	16gg
.	.	.	16ee-
4B-	4f	4d	4bb-
4r	4r	4r	8r
.	.	.	8ff
=10	=10	=10	=10
1r	1r	4.r	8ddd
.	.	.	8bb-
.	.	.	8.bb-
.	.	8f	.
.	.	.	32aa
.	.	.	32bb-
.	.	8ee-	8aa
.	.	8cc	8aa
.	.	8cc	8ee-
.	.	16b-	8ee-
.	.	16a	.
=11	=11	=11	=11
1r	4.r	8b-	8dd
.	.	8ff	8b-
.	.	8ff	8b-
.	8f	8ff	16a
.	.	.	16b-
.	8ee-	8ff	8a
.	8cc	8ff	8a
.	8cc	8ff	8ee-
.	16b-	8ff	8ee-
.	16a	.	.
=12	=12	=12	=12
4.r	4b-	2ff	8ddd
.	.	.	8bb-
.	4dd	.	8.bb-
8F	.	.	.
.	.	.	32aa
.	.	.	32bb-
8e-	8cc	2ff	8aa
8c	8ee-	.	8aa
8c	8a	.	8eee-
16B-	8cc	.	8eee-
16A	.	.	.
=13	=13	=13	=13
4B-	4b-	1ff	8ddd
.	.	.	8bb-
8r	4d	.	8.bb-
8FF	.	.	.
.	.	.	32aa
.	.	.	32bb-
8E-	8c	.	8aa
8C	8e-	.	8aa
8C	8A	.	8eee-
16BB-	8c	.	8eee-
16AA	.	.	.
=14	=14	=14	=14
8BB-	8B-	4ff	8ddd
8B-	8b-	.	8bb-
8B-	8b-	4b-	16ddd
.	.	.	16bb-
8B-	8b-	.	16ddd
.	.	.	16bb-
8B-	2a	8cc	8eee-
8B-	.	8a	8ccc
8B-	.	16cc	16eee-
.	.	16a	16ccc
8B-	.	16cc	16eee-
.	.	16a	16ccc
=15	=15	=15	=15
8B-	2a-	8dd	8fff
8B-	.	8b-	8ddd
8B-	.	16dd	16fff
.	.	16b-	16ddd
8B-	.	16dd	16fff
.	.	16b-	16ddd
8B-	4g	2ee-	8ggg
8B-	.	.	8eee-
8B-	4cc	.	8aaa
8B-	.	.	8fff
=16	=16	=16	=16
4B-	4b-	4dd	8.bbb-
.	.	.	16fff
2r	8b-	8dd	16bbb-
.	.	.	16fff
.	8b-	8dd	16bbb-
.	.	.	16fff
.	4b-	4dd	4bbb-
8E	8e	8e	8e
8E	8e	8e	8e
=17	=17	=17	=17
8F	8f	8f	8f
8F	8f	8f	8f
8G	8g	8g	8g
8G	8g	8g	8g
8E-	8e-	8e-	8e-
16D	16d	16d	16d
16E-	16e-	16e-	16e-
8F	8f	8f	8f
8F	8f	8f	8f
=18	=18	=18	=18
4BB-	4B-	4B-	16bb-
.	.	.	16b-
.	.	.	16a
.	.	.	16b-
2.r	2r	8r	16cc
.	.	.	16b-
.	.	8a-	16dd
.	.	.	16b-
.	.	8g	16ee-
.	.	.	16b-
.	.	8d	16ff
.	.	.	16b-
.	8r	8e-	16gg
.	.	.	16b-
.	8e-	8c	16aa
.	.	.	16b-
=19	=19	=19	=19
4BB-	4d	4B-	16bb-
.	.	.	16b-
.	.	.	16a
.	.	.	16b-
2.r	2r	8r	16cc
.	.	.	16b-
.	.	8a-	16dd
.	.	.	16b-
.	.	8g	16ee-
.	.	.	16b-
.	.	8d	16ff
.	.	.	16b-
.	8r	8e-	16gg
.	.	.	16b-
.	8e-	8c	16aa
.	.	.	16b-
=20	=20	=20	=20
4BB-	4d	8B-	16bb-
.	.	.	16b-
.	.	8dd	16ff
.	.	.	16b-
2.r	2.r	8ee-	16gg-
.	.	.	16b-
.	.	8dd	16ff
.	.	.	16b-
.	.	8ee-	16gg-
.	.	.	16b-
.	.	8dd-	16gg
.	.	.	16b-
.	.	8cc	16aa-
.	.	.	16b-
.	.	8cc-	16aa
.	.	.	16b-
=21	=21	=21	=21
1B-	8r	8b-	16bb-
.	.	.	16b-
.	8a-	8dd	16ff
.	.	.	16b-
.	8g-	8ee-	16gg-
.	.	.	16b-
.	8a-	8dd	16ff
.	.	.	16b-
.	8g-	8ee-	16gg-
.	.	.	16b-
.	8b-	8dd-	16gg
.	.	.	16b-
.	8a-	8cc	16aa-
.	.	.	16b-
.	8e-	8cc-	16aa
.	.	.	16b-
=22	=22	=22	=22
4B-	4d	4b-	8bb-
.	.	.	24ff
.	.	.	24gg
.	.	.	24ff
4G	4g	4g	8bb-
.	.	.	8g
4F	4f	4f	8bb-
.	.	.	8f
4E	4e	4e	8bb-
.	.	.	8e
=23	=23	=23	=23
8F	8f	8f	2f
8F	8b-	8dd	.
8F	8b-	8dd	.
8F	8b-	8dd	.
8F	8f	8f	2cc
8F	8e-	8a	.
8F	8e-	8a	.
8F	8e-	8a	.
=24	=24	=24	=24
4BB-	4d	4b-	8b-
.	.	.	8B- 8d
4.r	4.r	4.r	8B- 8d
.	.	.	8e- 8c
.	.	.	8f 8d
8BB-	4dd	4ff	4.r
8D	.	.	.
8F	16cc	16ee-	.
.	16a	16cc	.
=25	=25	=25	=25
4B-	4b-	4dd	8r
.	.	.	8B- 8d
4.r	4.r	4.r	8B- 8d
.	.	.	8e- 8c
.	.	.	8f 8d
8BB-	4f	4dd	4.r
8D	.	.	.
8F	16e-	16cc	.
.	16c	16a	.
=26	=26	=26	=26
4B-	8d	8b-	8r
.	8B-	8d	8dd 8f
4r	8B-	8d	8f 8dd
.	8c	8e-	8e- 8cc
4BB-	4d	4f	8b- 8d
.	.	.	4.r
4r	4r	8r	.
.	.	8d	.
=27	=27	=27	=27
8GG	2B	8g	2..r
8G	.	8d	.
8G	.	8d	.
8G	.	16c	.
.	.	16d	.
8GG	8c	8e-	.
8G	8c	8e-	.
8G	8B	8d	.
8G	8B	[8g	8g
=28	=28	=28	=28
8AA-	2c	8g]	8cc
8A-	.	8a-	8f
8A-	.	4.f	8f
8A-	.	.	16e
.	.	.	16f
8GG	2B-	.	8b-
8G	.	8g	8e-
8G	.	[4e-	8r
8G	.	.	8e-
=29	=29	=29	=29
8FF	2A-	8e-]	8a-
8F	.	8f	8d
8F	.	4.d	8d
8F	.	.	16c
.	.	.	16d
8EE-	2G	.	8g
8E-	.	8e-	8c
8E-	.	[4c	8r
8E-	.	.	8c
=30	=30	=30	=30
8DD	2F	8c]	8f
8D	.	8d	8B-
8D	.	4.B-	8B-
8D	.	.	16A
.	.	.	16B-
8CC	4.E-	.	8e-
8C	.	8c	8A
8C	.	8A	8r
8C	8c	8ee-	8A
=31	=31	=31	=31
4BB-	8B-	8dd	8d
.	8d	8b-	8f
2.r	8d	8b-	8f
.	16c	8b-	16e-
.	16d	.	16f
.	8e-	[2b-	8g
.	8e-	.	8g
.	8c	.	8a
.	8c	.	8a
=32	=32	=32	=32
4BB-	8d	1b-_	8b-
.	8d	.	8f
2.r	8d	.	8f
.	16c	.	16e-
.	16d	.	16f
.	8e-	.	8g
.	8e-	.	8g
.	8c	.	8a
.	8c	.	8a
=33	=33	=33	=33
4BB-	8d	8b-]	[1b-
.	8d	8f	.
2r	8d	8f	.
.	16c	16e-	.
.	16d	16f	.
.	8e-	8g	.
.	8e-	8g	.
8r	8f	8a-	.
8B-	8f	8a-	.
=34	=34	=34	=34
8e-	4.e-	8g	8b-]
8B-	.	8ee-	8gg
8B-	.	8ee-	8gg
16A-	8g	8ee-	16ff
16G	.	.	16ee-
8A-	16f	8ee-	8ff
.	16g	.	.
8f	16a-	8ee-	16ccc
.	16g	.	16bb-
8r	8f	8ee-	16aa-
.	.	.	16gg
8A-	8f	16dd	16ff
.	.	16ee-	16ee-
=35	=35	=35	=35
8B-	4.f	2dd	8dd
8f	.	.	8B-
8A-	.	.	8ff
16G	8f	.	16ee-
16F	.	.	16dd
8G	16e-	8dd	8ee-
.	16f	.	.
8e-	16g	8dd	16bb-
.	16f	.	16aa-
8r	8e-	8dd	16gg
.	.	.	16ff
8G	8e-	16cc	16ee-
.	.	16dd	16dd
=36	=36	=36	=36
8A-	4.e-	2cc	8cc
8e-	.	.	8A-
8G	.	.	8ee-
16F	8e-	.	16dd
16E-	.	.	16cc
8F	16d	8cc	8dd
.	16e-	.	.
8d	16f	8cc	16aa-
.	16e-	.	16gg
8r	8d	8cc	16ff
.	.	.	16ee-
8F	8d	16b-	16dd
.	.	16cc	16cc
=37	=37	=37	=37
8G	4.d	2b-	8b-
8d	.	.	8G
8F	.	.	8dd
16E-	8d	.	16cc
16D	.	.	16b-
8E-	16c	8b-	8cc
.	16d	.	.
8c	16e-	8b-	16gg
.	16d	.	16ff
8r	8c	8b-	16ee-
.	.	.	16dd
8E-	8c	16a-	16cc
.	.	16b-	16b-
=38	=38	=38	=38
8F	4.c	2a-	8a-
8c	.	.	8A-
8E-	.	.	8cc
16D	8c	.	16b-
16C	.	.	16a-
8D	16B-	8a-	8b-
.	16c	.	.
8B-	16d	8a-	16ff
.	16c	.	16ee-
8r	8B-	8a-	16dd
.	.	.	16cc
8D	8B-	16g-	16b-
.	.	16a-	16a-
=39	=39	=39	=39
8E-	8B-	8g-	8g-
8E-	8e-	8b-	4b-
8E-	8e-	8b-	.
8E-	8e-	8b-	4ee-
8D-	8e-	8b-	.
8D-	8e-	8b-	4gg-
8D-	8e-	8b-	.
8D-	8e-	8b-	[8bb-
=40	=40	=40	=40
8C-	8e-	8b-	8bb-]
8C-	8e-	8b-	4eee-
8C-	8e-	8b-	.
8C-	8e-	8b-	4ggg-
8C-	8e-	8a	.
8C-	8e-	8g-	8a
8C-	8e-	8f	8a
8C-	8e-	8e-	8a
=41	=41	=41	=41
8BB-	8d	8f	8b-
8BB-	8d	8f	8b-
8BB-	8c	8A	8e-
8BB-	8c	8A	8e-
4BB-	4B-	4B-	4d
4r	4r	4r	8r
.	.	.	8b-
=42	=42	=42	=42
1r	1r	1r	8ee-
.	.	.	8b-
.	.	.	8.b-
.	.	.	32a
.	.	.	32b-
.	.	.	8cc
.	.	.	8cc
.	.	.	8b-
.	.	.	8b-
=43	=43	=43	=43
8A-	8B-	8d	8f
8A-	8B-	8d	8f
8G	8B-	8e-	8g
8G	8B-	8e-	8g
4F	4B-	4d	4a-
4r	4r	4r	4r
=44	=44	=44	=44
8B-	8c	8e	8g
8B-	8c	8e	8g
8A-	8c	8f	8a-
8A-	8c	8f	8a-
4G	4c	4e	4b-
4r	4r	8r	4r
.	.	8cc	.
=45	=45	=45	=45
2r	2r	8ff	2r
.	.	8cc	.
.	.	8cc	.
.	.	16b-	.
.	.	16cc	.
8e	8g	8dd-	8bb-
8e	8g	8dd-	8bb-
8f	8a-	8cc	8aa-
8f	8a-	8cc	8aa-
=46	=46	=46	=46
8d	8f	8cc-	8aa-
8d	8f	8cc-	8aa-
8e-	8g	8b-	8gg
8e-	8g	8b-	8gg
8A-	8a-	8cc	16ff
.	.	.	16gg
8A-	8a-	8cc	16aa-
.	.	.	16gg
8A-	8a-	8cc	8ff
8A	8f	8cc	8ee-
=47	=47	=47	=47
4B-	4f	4b-	16dd
.	.	.	16b-
.	.	.	16a
.	.	.	16b-
2.r	2r	8r	16cc
.	.	.	16b-
.	.	8a-	16dd
.	.	.	16b-
.	.	8g	16ee-
.	.	.	16b-
.	.	8d	16ff
.	.	.	16b-
.	8r	8e-	16gg
.	.	.	16b-
.	8e-	8c	16aa
.	.	.	16b-
=48	=48	=48	=48
4B-	4.d	4B-	16bb-
.	.	.	16b-
.	.	.	16a
.	.	.	16b-
2.r	.	8f	16a-
.	.	.	16b-
.	8e-	8e-	16g
.	.	.	16b-
.	8f	8d	16f
.	.	.	16b-
.	8e-	8e-	16g
.	.	.	16b-
.	8d	8f	16a-
.	.	.	16b-
.	8f	8d	16f
.	.	.	16b-
=49	=49	=49	=49
4E-	4.e-	2..e-	16g
.	.	.	16e-
.	.	.	16d
.	.	.	16e-
2.r	.	.	16f
.	.	.	16e-
.	8d-	.	16g
.	.	.	16e-
.	8c	.	16a-
.	.	.	16e-
.	8G	.	16b-
.	.	.	16e-
.	8A-	.	16cc
.	.	.	16e-
.	8F	8a-	16dd
.	.	.	16e-
=50	=50	=50	=50
4E-	4.G	4g	16ee-
.	.	.	16e-
.	.	.	16d
.	.	.	16e-
2.r	.	8B-	16d-
.	.	.	16e-
.	8A-	8A-	16c
.	.	.	16e-
.	8B-	8G	16G
.	.	.	16e-
.	8A-	8A-	16c
.	.	.	16e-
.	8G	8B-	16d-
.	.	.	16e-
.	8B-	8G	16B-
.	.	.	16e-
=51	=51	=51	=51
8AA-	8c	8c	8c
8AA-	8A-	8c	4cc
8AA-	8A-	8c	.
8AA-	8A-	8c	4a-
8AA-	8A-	8c	.
8AA-	8A-	8c	4f
8AA-	8A-	8c	.
8AA	8F	8c	8e-
=52	=52	=52	=52
8BB-	8F	8B-	8d
8BB-	8B-	8B-	8B-
8BB-	8B-	8B-	8B-
8BB-	8B-	8B-	8B-
4BB-	4B-	4B-	4B-
4r	4r	4r	8r
.	.	.	8b-
=53	=53	=53	=53
1r	1r	4.r	8gg
.	.	.	8ee-
.	.	.	8.ee-
.	.	8B-	.
.	.	.	32dd
.	.	.	32ee-
.	.	8a-	8dd
.	.	4f	8dd
.	.	.	8a-
.	.	16e-	8a-
.	.	16d	.
=54	=54	=54	=54
1r	4.r	8e-	8g
.	.	8b-	8e-
.	.	8b-	8.e-
.	8B-	8b-	.
.	.	.	32d
.	.	.	32e-
.	8a-	[2b-	8d
.	8f	.	8d
.	8f	.	8a-
.	16e-	.	8a-
.	16d	.	.
=55	=55	=55	=55
4.r	4e-	1b-]	8gg
.	.	.	8ee-
.	4g	.	8.ee-
8BB-	.	.	.
.	.	.	32dd
.	.	.	32ee-
8A-	8f	.	8dd
8F	8a-	.	8dd
8F	8d	.	8aa-
16E-	8f	.	8aa-
16D	.	.	.
=56	=56	=56	=56
4E-	4e-	1b-	8gg
.	.	.	8ee-
8r	4g	.	8.ee-
8BB-	.	.	.
.	.	.	32dd
.	.	.	32ee-
8A-	8f	.	8dd
8F	8a-	.	8dd
8F	8d	.	8aa-
16E-	8f	.	8aa-
16D	.	.	.
=57	=57	=57	=57
8E-	8e-	4b-	8gg
8E-	8e-	.	8ee-
8E-	8e-	4ee-	16gg
.	.	.	16ee-
8E-	8e-	.	16gg
.	.	.	16ee-
8E-	2d	8ff	8aa-
8E-	.	8dd	8ff
8E-	.	16ff	16aa-
.	.	16dd	16ff
8E-	.	16ff	16aa-
.	.	16dd	16ff
=58	=58	=58	=58
8E-	2d-	8gg	8bb-
8E-	.	8ee-	8gg
8E-	.	16gg	16bb-
.	.	16ee-	16gg
8E-	.	16gg	16bb-
.	.	16ee-	16gg
8E-	4c	2aa-	8ccc
8E-	.	.	8aa-
8E-	4f	.	8ddd
8E-	.	.	8bb-
=59	=59	=59	=59
8E-	4e-	4gg	8.eee-
2r	.	.	.
.	.	.	16bb-
.	8e-	8gg	16eee-
.	.	.	16bb-
.	8e-	8gg	16eee-
.	.	.	16bb-
.	4e-	4gg	4eee-
8r	.	.	.
8AA	8A	8A	8A
8AA	8A	8A	8A
=60	=60	=60	=60
8BB-	8B-	8B-	8B-
8BB-	8B-	8B-	8B-
8C	8c	8c	8c
8C	8c	8c	8c
8AA-	8A-	8A-	8A-
16GG	16G	16G	16G
16AA-	16A-	16A-	16A-
8BB-	8B-	8B-	8B-
8BB-	8B-	8B-	8B-
=61	=61	=61	=61
4E-	4e-	4e-	16ee-
.	.	.	16e-
.	.	.	16d
.	.	.	16e-
2.r	2r	8r	16f
.	.	.	16e-
.	.	8dd-	16g
.	.	.	16e-
.	.	8cc	16a-
.	.	.	16e-
.	.	8g	16b-
.	.	.	16e-
.	8r	8a-	16cc
.	.	.	16e-
.	8a-	8f	16dd
.	.	.	16e-
=62	=62	=62	=62
4E-	4g	4e-	16ee-
.	.	.	16e-
.	.	.	16d
.	.	.	16e-
2.r	2r	8r	16f
.	.	.	16e-
.	.	8dd-	16g
.	.	.	16e-
.	.	8cc	16a-
.	.	.	16e-
.	.	8g	16b-
.	.	.	16e-
.	8r	8a-	16cc
.	.	.	16e-
.	8a-	8f	16dd
.	.	.	16e-
=63	=63	=63	=63
4E-	4g	8e-	16ee-
.	.	.	16e-
.	.	8g	16b-
.	.	.	16e-
2.r	2.r	8a-	16cc-
.	.	.	16e-
.	.	8g	16b-
.	.	.	16e-
.	.	8a-	16cc-
.	.	.	16e-
.	.	8g-	16cc
.	.	.	16e-
.	.	8f	16dd-
.	.	.	16e-
.	.	8f-	16dd
.	.	.	16e-
=64	=64	=64	=64
1EE-	8r	8e-	16ee-
.	.	.	16e-
.	8d-	8g	16b-
.	.	.	16e-
.	8c-	8a-	16cc-
.	.	.	16e-
.	8d-	8g	16b-
.	.	.	16e-
.	8c-	8a-	16cc-
.	.	.	16e-
.	8e-	8g-	16cc
.	.	.	16e-
.	8d-	8f	16dd-
.	.	.	16e-
.	8A-	8f-	16dd
.	.	.	16e-
=65	=65	=65	=65
4EE-	4G	4e-	8ee-
.	.	.	24b-
.	.	.	24cc
.	.	.	24b-
4C	4c	4c	8ee-
.	.	.	8c
4BB-	4B-	4B-	8ee-
.	.	.	8B-
4AA	4A	4A	8ee-
.	.	.	8A
=66	=66	=66	=66
8BB-	8B-	8B-	2B-
8BB-	8e-	8g	.
8BB-	8e-	8g	.
8BB-	8e-	8g	.
8BB-	8B-	8B-	2f
8BB-	8A-	8d	.
8BB-	8A-	8d	.
8BB-	8A-	8d	.
=67	=67	=67	=67
4E-	4G	4e-	8e-
.	.	.	8g 8B-
4.r	4.r	4.r	8B- 8g
.	.	.	8A- 8f
.	.	.	4G 4e-
8EE-	4g	4b-	.
8GG	.	.	4r
8BB-	16f	16a-	.
.	16d	16f	.
=68	=68	=68	=68
4E-	4e-	4g	8r
.	.	.	8B- 8g
4.r	4.r	4.r	8g 8B-
.	.	.	8A- 8f
.	.	.	4G 4e-
8EE-	4B-	4g	.
8GG	.	.	4r
8BB-	16A-	16f	.
.	16F	16d	.
=69	=69	=69	=69
4E-	8G	8e-	8r
.	8E-	8G	8B- 8g
4r	8E-	8G	8g 8B-
.	8F	8A-	8A- 8f
4EE-	4G	4B-	4G 4e-
4r	4r	4r	4r
==	==	==	==
*-	*-	*-	*-
!!!RWG1: This file contains only pitch and duration data.
!!!RWG2: Transposing instruments are not transposed.
!!!RWG3: Spines may have incompatible meters.
!!!RWG4: Durations of rests and tied notes may be interpreted.
!!!RWG: Key is interpreted using the Humdrum key tool.
!!!GTL: 6 Divertimentos
!!!AFT: stage1
!!!END: 1997/04/15
!!!KEY: 3151709798
!!!EMD: Converted from MuseData to Humdrum Dec 16, 2000, by Andreas Kornstaedt using muse2kern.
!!!EMD: Manual editing by Craig Sapp, Nov 2001
